!! 00000] TT[WS
!!!OTL: Zhengzhu daojuanlian
!!!ARE: Asia, China, Shanxi Hequ
!! Ethnic Group: Han
!! WII, 193
!!!SCT: J0690
!!!YEM: Copyright 1995, estate of Helmut Schaffrath.
**kern
*ICvox
*Ivox
*M2/4
*k[f#c#g#]
*A:
{8b
8b
8cc#
8a
=1
2b
=2
8.cc#
16b
8a
8b
=3
8a
8f#
4e}
=4
{8a
8a
8b
8a
=5
8f#
4a
8c#
=6
2B
=7
8.f#
16f#
8f#
8f#
=8
8a
8c#
8e
8f#}
=9
{8a
8a
8b
8a
=10
8f#
4a
8c#
=11
2B}
==
!!!AGN: Xiaodiao, Shidiao. XÅshi
!!!ONB: ESAC (Essen Associative Code) Database: CHINA
!!!AMT: simple duple
!!!AIN: vox
!!!EED: Helmut Schaffrath
!!!EEV: 1.0
*-
